wp-content/themes/sayenko-erickson/public/images/careers/world.svg

<?xml version="1.0" encoding="UTF-8"?>
<svg width="60px" height="59px" viewBox="0 0 60 59" version="1.1" xmlns="http://www.w3.org/2000/svg" xmlns:xlink="http://www.w3.org/1999/xlink">
    <!-- Generator: Sketch 62 (91390) - https://sketch.com -->
    <title>world</title>
    <desc>Created with Sketch.</desc>
    <g id="Mockups" stroke="none" stroke-width="1" fill="none" fill-rule="evenodd">
        <g id="Career-Index" transform="translate(-1002.000000, -1735.000000)" fill="#E9731F" fill-rule="nonzero">
            <g id="Group-7" transform="translate(144.000000, 1729.000000)">
                <g id="world" transform="translate(858.000000, 6.000000)">
                    <path d="M11.449296,50.247801 C11.430171,50.230665 11.410434,50.214294 11.389932,50.198688 C10.777932,49.690728 10.165932,49.146048 9.602892,48.583008 C9.245178,48.229119 8.669286,48.229119 8.311572,48.583008 C7.953552,48.941487 7.953552,49.521969 8.311572,49.880448 C8.923572,50.492448 9.535572,51.061608 10.221012,51.612408 C10.597851,51.951609 11.178333,51.921009 11.517534,51.54417 C11.856582,51.167331 11.826135,50.587002 11.449296,50.247801 Z" id="Path"></path>
                    <path d="M1.841814,23.031702 C1.36323,22.864473 0.839664,23.117076 0.672435,23.59566 C0.647649,23.666652 0.631584,23.740551 0.624852,23.815368 C0.441252,24.653808 0.300492,25.504488 0.196452,26.355168 C0.130968,26.852724 0.477054,27.310653 0.973692,27.3833282 L1.089972,27.3833282 C1.554633,27.383634 1.94616,27.036783 2.001852,26.575488 C2.099772,25.779888 2.234412,24.978168 2.405772,24.200928 C2.573001,23.722344 2.320398,23.198778 1.841814,23.031702 Z" id="Path"></path>
                    <path d="M6.885612,45.382248 C6.414372,44.733528 5.967612,44.060328 5.557572,43.374888 C5.29839,42.939144 4.735044,42.795936 4.2993,43.055118 C4.298535,43.055577 4.297617,43.056036 4.296852,43.056648 C3.861108,43.31583 3.7179,43.879176 3.977082,44.31492 C3.977541,44.315685 3.978,44.316603 3.978612,44.317368 C4.419252,45.051768 4.896612,45.773928 5.404572,46.465488 C5.717763,46.864206 6.294879,46.933362 6.693597,46.620171 C7.072884,46.322127 7.156881,45.781272 6.885612,45.382248 Z" id="Path"></path>
                    <path d="M3.684852,39.592728 C3.391092,38.852208 3.121812,38.087208 2.895372,37.316088 C2.754153,36.829242 2.244816,36.548946 1.75797,36.690165 C1.749402,36.692613 1.740987,36.695214 1.732572,36.697968 C1.250775,36.845154 0.97767,37.353267 1.120572,37.836288 C1.365372,38.656368 1.646892,39.476448 1.965132,40.284288 C2.156076,40.7592 2.69586,40.989312 3.170772,40.798368 C3.645684,40.607424 3.875796,40.06764 3.684852,39.592728 Z" id="Path"></path>
                    <path d="M4.232592,16.737588 C3.779712,16.509465 3.227535,16.691688 2.999412,17.144568 C2.613852,17.909568 2.258892,18.699048 1.946772,19.500768 C1.762713,19.970478 1.992366,20.500776 2.460852,20.688048 C2.932245,20.874708 3.465756,20.643984 3.652416,20.172591 C3.653028,20.171061 3.65364,20.169378 3.654252,20.167848 C3.948012,19.421208 4.266252,18.680688 4.639572,17.970768 C4.867695,17.517888 4.685472,16.965864 4.232592,16.737588 Z" id="Path"></path>
                    <path d="M2.032758,33.206049 C2.032605,33.205284 2.032605,33.204366 2.032452,33.203601 C1.934532,32.408001 1.867212,31.600161 1.836612,30.804561 C1.818099,30.297519 1.391994,29.901708 0.884952,29.920221 C0.37791,29.938734 -0.017901,30.364839 0.000612,30.871881 C0.000612,31.728681 0.098532,32.591601 0.208692,33.442281 C0.271422,33.887205 0.647037,34.221204 1.096092,34.231761 L1.236852,34.231761 C1.739916,34.168266 2.096253,33.70896 2.032758,33.206049 Z" id="Path"></path>
                    <path d="M26.386992,2.582028 C26.338032,2.074986 25.887294,1.703808 25.380252,1.752768 C24.529572,1.838448 23.672772,1.960848 22.828212,2.126088 C22.32117,2.173365 21.948615,2.622726 21.995892,3.129768 C22.043169,3.63681 22.49253,4.009365 22.999572,3.962088 L22.993452,3.937608 L23.170932,3.937608 C23.960412,3.784608 24.762132,3.668328 25.557732,3.588768 C26.064774,3.539808 26.435952,3.08907 26.386992,2.582028 Z" id="Path"></path>
                    <path d="M8.219772,11.183688 C7.837884,10.845711 7.254189,10.88136 6.916212,11.263248 C6.353172,11.905848 5.814612,12.585168 5.312772,13.282848 C5.01534,13.693347 5.106987,14.267403 5.517639,14.564835 C5.673546,14.677749 5.860818,14.738796 6.053292,14.739408 L6.053292,14.751654 C6.348735,14.752719 6.626583,14.6115 6.799932,14.372208 C7.271172,13.723488 7.773012,13.087008 8.299332,12.487248 C8.637309,12.10536 8.60166,11.521818 8.219772,11.183688 Z" id="Path"></path>
                    <path d="M32.436612,1.905768 C31.592052,1.777248 30.729132,1.685448 29.872332,1.636488 C29.36529,1.606041 28.929699,1.992366 28.899252,2.499408 C28.868805,3.00645 29.25513,3.442041 29.762172,3.472488 C30.570012,3.533688 31.371732,3.619368 32.161212,3.741768 L32.301972,3.741768 C32.809014,3.778947 33.250113,3.39813 33.287292,2.891088 C33.324471,2.384199 32.943654,1.942947 32.436612,1.905768 Z" id="Path"></path>
                    <path d="M13.433247,6.809571 C13.146066,6.419574 12.605364,6.319665 12.197772,6.581448 C11.493972,7.064928 10.802412,7.591248 10.141452,8.135928 C9.750996,8.460441 9.697599,9.039852 10.022112,9.430308 C10.346625,9.820764 10.926036,9.874161 11.316492,9.549648 C11.928492,9.035568 12.577212,8.545968 13.238172,8.093088 C13.646529,7.792596 13.733739,7.217928 13.433247,6.809571 Z" id="Path"></path>
                    <g id="Group" transform="translate(15.453000, 3.213000)">
                        <path d="M1.059372,2.854368 C1.056312,2.854368 1.053405,2.853756 1.050345,2.853756 C1.047132,2.853756 1.044072,2.854368 1.041012,2.854368 L1.059372,2.854368 Z" id="Path"></path>
                        <path d="M4.296393,0.704106 C4.162212,0.215271 3.657006,-0.072369 3.168018,0.061965 C3.125025,0.073746 3.08295,0.08874 3.042099,0.106641 C2.240379,0.400401 1.438659,0.718641 0.667539,1.104201 C0.207774,1.318095 0.008568,1.864152 0.222462,2.323764 C0.372402,2.646135 0.695232,2.852073 1.050192,2.853909 C1.18269,2.851308 1.313199,2.820555 1.432539,2.762721 C2.154699,2.420001 2.901339,2.107881 3.654099,1.832481 C4.14324,1.698147 4.430727,1.192941 4.296393,0.704106 Z" id="Path"></path>
                    </g>
                    <path d="M30.848472,57.019428 C30.816342,56.512386 30.379374,56.127438 29.872332,56.159568 C29.070612,56.220768 28.262772,56.239128 27.461052,56.214648 C26.95401,56.201184 26.532036,56.601126 26.518572,57.108168 C26.505108,57.61521 26.90505,58.037184 27.412092,58.050648 L28.189332,58.050648 C28.801332,58.050648 29.413332,58.050648 29.988612,57.995568 C30.495654,57.963591 30.880602,57.52647 30.848472,57.019428 Z" id="Path"></path>
                    <path d="M54.875592,35.752428 C54.38385,35.627427 53.883693,35.924706 53.758692,36.416448 C53.562852,37.193688 53.324172,37.964808 53.054892,38.717568 C52.895313,39.190338 53.142561,39.704112 53.611812,39.874248 C54.089019,40.045455 54.614727,39.797289 54.785934,39.320082 C54.78624,39.319164 54.786546,39.318246 54.786852,39.317328 C55.074492,38.509488 55.325412,37.683288 55.539612,36.869328 C55.664766,36.377586 55.367334,35.877582 54.875592,35.752428 Z" id="Path"></path>
                    <path d="M56.047572,25.241328 C55.906812,24.396768 55.729332,23.546088 55.515132,22.719888 C55.368558,22.234572 54.856161,21.959937 54.370845,22.106664 C53.910774,22.245588 53.635833,22.71591 53.740332,23.185008 C53.942292,23.956128 54.107532,24.751728 54.242172,25.541208 C54.321273,25.973739 54.69597,26.289378 55.135692,26.293968 L55.288692,26.293968 C55.788849,26.212725 56.128509,25.741638 56.047572,25.241328 Z" id="Path"></path>
                    <path d="M59.949225,14.704677 C59.906079,14.610888 59.847021,14.525361 59.774652,14.451921 L58.152852,12.762801 C57.920598,12.530853 57.579255,12.446091 57.265452,12.542481 L54.340092,13.429881 L50.912892,9.794601 L58.605732,5.510601 C59.054022,5.304204 59.250015,4.773447 59.043465,4.32531 C59.000319,4.231521 58.941261,4.145994 58.868892,4.072554 L56.708532,1.912194 C56.473065,1.685907 56.132793,1.606041 55.821132,1.704114 L46.071972,4.653954 L42.791652,1.171674 C41.95566,0.20502 40.594725,-0.117963 39.413412,0.369954 L39.358332,0.369954 C38.467719,0.736542 37.7604,1.443861 37.393812,2.334474 C37.3014,2.567034 37.235763,2.809233 37.197972,3.056634 L36.824652,2.928114 C36.341325,2.772666 35.82342,3.038427 35.667972,3.521754 C35.512524,4.005081 35.778285,4.522986 36.261612,4.678434 C36.732852,4.831434 37.204092,5.002794 37.675332,5.180274 C37.817163,5.402124 37.983474,5.60745 38.171052,5.792274 L41.628852,9.072594 L40.637412,12.346794 C30.940578,5.429817 17.472447,7.683354 10.55547,17.380188 C3.638493,27.077022 5.89203,40.545 15.588864,47.461977 C25.285698,54.378954 38.753829,52.125417 45.670806,42.428583 C51.186762,34.69581 50.994288,24.264729 45.196812,16.740801 L46.763532,13.913361 L50.398812,17.340561 L49.523652,20.235321 C49.418235,20.553408 49.501161,20.903778 49.737852,21.141081 C49.737852,21.141081 51.531012,22.915881 51.573852,22.977081 C51.997815,23.222799 52.540812,23.078367 52.786683,22.654404 C52.790508,22.647825 52.794333,22.641093 52.797852,22.634361 L55.190772,18.246321 L59.511492,15.890121 C59.959782,15.683571 60.155775,15.152814 59.949225,14.704677 Z M14.254092,15.914448 C17.943687,12.226536 22.948164,10.156905 28.164852,10.1616399 C28.572903,10.1616399 28.980801,10.173888 29.388852,10.198368 C32.858892,13.399128 31.836852,16.318368 29.511252,18.949968 C28.138842,20.405457 26.666523,21.763332 25.104852,23.013648 C22.846572,24.935328 20.741292,26.728488 19.945692,28.521648 C19.003212,30.651408 19.694772,32.579208 23.501412,34.262208 C25.404732,35.106768 26.439012,35.761608 26.842932,36.257328 C26.848899,36.264519 26.854713,36.269568 26.86068,36.274005 C26.848134,36.27783 26.835435,36.281961 26.818452,36.287928 C25.89678,36.63891 24.915744,36.80721 23.929812,36.783648 C19.315332,36.979488 16.028892,34.029648 13.476852,31.746888 C11.640852,30.112848 10.116972,28.754208 8.531892,28.741968 C8.793828,23.907321 10.831635,19.339353 14.254092,15.914448 Z M47.907972,29.855808 L47.914092,29.855808 C47.911338,38.385558 42.427971,45.947736 34.321572,48.601368 C34.093908,47.166993 34.35921,45.697734 35.074332,44.433648 C36.044046,42.876261 37.288242,41.507829 38.746332,40.394448 C44.395092,35.682048 44.713332,33.050448 44.958132,31.024728 C45.111132,29.745648 45.227412,28.790928 47.754972,27.401688 C47.856411,28.215801 47.907513,29.035422 47.907972,29.855808 Z M46.769652,23.233968 C47.043216,24.004476 47.267973,24.791508 47.442852,25.590168 C43.593372,27.548568 43.422012,28.943928 43.189452,30.847248 C42.981372,32.560848 42.712092,34.800768 37.608012,39.060288 C35.973207,40.311063 34.583202,41.852538 33.507612,43.607448 C32.569875,45.26505 32.244903,47.199582 32.589612,49.072608 C21.973095,51.499494 11.399418,44.860518 8.972532,34.244154 C8.69499,33.029946 8.533116,31.792176 8.489052,30.547368 C9.462132,30.547368 10.722852,31.704048 12.271212,33.081048 C15.074172,35.584128 18.660492,38.778768 24.003252,38.589048 C25.262136,38.610774 26.511993,38.373318 27.675252,37.891368 C28.165617,37.674567 28.536795,37.254276 28.691172,36.740808 C28.821528,36.168129 28.656135,35.568216 28.250532,35.143488 C27.675252,34.439688 26.414532,33.607368 24.248052,32.640408 C21.659292,31.495968 21.096252,30.382128 21.604212,29.243808 C22.216212,27.811728 24.186852,26.183808 26.279892,24.347808 C27.910872,23.029713 29.446686,21.598245 30.876012,20.063808 C33.434172,17.150688 34.749972,13.974408 32.148972,10.498248 C35.039601,11.089134 37.759329,12.32568 40.104972,14.115168 L38.697372,18.760248 C38.593485,19.078488 38.676105,19.428093 38.911572,19.666008 C38.911572,19.666008 41.194332,21.930408 41.267772,21.973248 C41.691735,22.218966 42.234732,22.074534 42.480603,21.650571 C42.484428,21.643992 42.4881,21.63726 42.491772,21.630528 L44.272692,18.411408 C45.323955,19.895814 46.164231,21.518838 46.769652,23.233968 Z M54.976572,16.397928 L54.187092,16.789608 C54.010377,16.877277 53.868087,17.021556 53.783172,17.199648 L53.391492,17.995248 L51.867612,20.749248 L51.420852,20.259648 L52.308252,17.328168 C52.41168,16.984683 52.298154,16.612893 52.020612,16.385688 L47.191932,11.838528 C46.842327,11.495043 46.280511,11.500092 45.937026,11.849697 C45.928764,11.858112 45.920808,11.866527 45.912852,11.875248 C45.851652,11.942568 41.506452,19.770048 41.506452,19.770048 L40.557852,18.821448 L43.519932,9.060048 C43.626114,8.714727 43.512282,8.339571 43.232292,8.111448 L39.388932,4.494528 C38.963592,4.134213 38.82222,3.53889 39.040092,3.025728 C39.23532,2.58111 39.59181,2.226915 40.037652,2.034288 L40.068252,2.034288 C40.575141,1.838601 41.150268,1.986093 41.500332,2.401488 L45.172332,6.281568 C45.402903,6.529122 45.754191,6.624135 46.078092,6.526368 L55.870092,3.570408 L56.818692,4.519008 L49.046292,8.790768 C48.616056,9.02547 48.457548,9.564642 48.692403,9.994725 C48.696075,10.001457 48.699747,10.008036 48.703572,10.014768 C48.740292,10.082088 53.422092,15.063768 53.422092,15.063768 C53.65404,15.30918 54.005175,15.401745 54.327852,15.302448 L57.271572,14.415048 L57.730572,14.874048 L54.976572,16.397928 Z" id="Shape"></path>
                    <path d="M52.61211,42.204132 C52.598799,42.196329 52.585182,42.188679 52.571412,42.181641 C52.132761,41.952294 51.591294,42.112026 51.347412,42.542721 C50.961852,43.246521 50.539572,43.938081 50.086692,44.599041 C49.794309,45.014742 49.894371,45.588798 50.310072,45.881181 C50.725773,46.173564 51.299829,46.073502 51.592212,45.657801 C52.069572,44.947881 52.522452,44.207361 52.938612,43.460721 C53.195499,43.023447 53.049231,42.460866 52.61211,42.204132 Z" id="Path"></path>
                    <path d="M55.515132,28.803168 C55.008243,28.796283 54.591624,29.20158 54.584586,29.708469 C54.584433,29.720862 54.584433,29.733255 54.584892,29.745648 L54.584892,29.849688 C54.584892,30.651408 54.548172,31.459248 54.474732,32.260968 C54.428832,32.765868 54.800775,33.212475 55.305675,33.258375 C55.306134,33.258375 55.306593,33.25857 55.307052,33.25857 L55.392732,33.25857 C55.876977,33.263118 56.281356,32.890716 56.316852,32.407848 C56.396412,31.557168 56.433132,30.694248 56.433132,29.837448 L56.433132,29.715048 C56.429766,29.210454 56.019726,28.803168 55.515132,28.803168 Z" id="Path"></path>
                    <path d="M23.281092,55.755648 C22.485492,55.621008 21.696012,55.449648 20.931012,55.217088 C20.452734,55.048941 19.928709,55.30032 19.760409,55.778598 C19.592109,56.256876 19.843641,56.780901 20.321919,56.949201 C20.356956,56.961594 20.392911,56.971692 20.429172,56.979801 C21.249252,57.212361 22.093812,57.414321 22.938372,57.591801 L23.109732,57.591801 C23.616774,57.639078 24.066135,57.266523 24.113412,56.759481 C24.160689,56.252439 23.788134,55.803078 23.281092,55.755648 Z" id="Path"></path>
                    <path d="M37.485153,55.476729 C37.319148,55.025991 36.833679,54.779355 36.371772,54.911241 L36.371772,54.935721 C35.612892,55.186641 34.829532,55.400841 34.052292,55.547721 C33.557184,55.659258 33.246135,56.151153 33.357672,56.646261 C33.469209,57.141369 33.961104,57.452418 34.456212,57.340881 C35.288532,57.151161 36.126972,56.918601 36.940932,56.655441 C37.416762,56.480103 37.660338,55.952406 37.485153,55.476729 Z" id="Path"></path>
                    <path d="M16.983612,53.754408 C16.255332,53.393328 15.539292,53.001648 14.847732,52.609968 C14.409999,52.353081 13.846959,52.499655 13.590072,52.937388 C13.333185,53.375121 13.479759,53.938161 13.917492,54.195048 C14.658012,54.629568 15.423012,55.033488 16.200252,55.419048 C16.659864,55.63539 17.20791,55.43802 17.424252,54.978408 C17.640594,54.518796 17.443377,53.97075 16.983612,53.754408 Z" id="Path"></path>
                    <path d="M48.711987,47.84922 C48.344175,47.513385 47.775474,47.532051 47.430612,47.891601 L47.436732,47.891601 C46.885932,48.503601 46.304532,49.042161 45.710892,49.574601 C45.33237,49.912578 45.299475,50.493519 45.637452,50.872041 C45.975429,51.250563 46.55637,51.283458 46.934892,50.945481 C47.546892,50.376321 48.195612,49.770441 48.770892,49.146201 C49.112847,48.771657 49.086378,48.191022 48.711987,47.84922 Z" id="Path"></path>
                    <path d="M43.647075,52.428204 C43.386975,51.993072 42.823323,51.851241 42.388038,52.111341 C42.37335,52.120062 42.358968,52.129242 42.344892,52.138881 L42.344892,52.114401 C41.671692,52.542801 40.967892,52.946721 40.257972,53.338401 C39.806775,53.56989 39.628683,54.123444 39.860172,54.574641 C40.091661,55.025838 40.645215,55.20393 41.096412,54.972441 C41.855292,54.580761 42.608052,54.146241 43.330212,53.687241 C43.765344,53.426988 43.907328,52.863336 43.647075,52.428204 Z" id="Path"></path>
                </g>
            </g>
        </g>
    </g>
</svg>

<svg width="60" height="59" viewBox="0 0 60 59" version="1.1" xmlns="http://www.w3.org/2000/svg"><g id="Mockups" stroke="none" stroke-width="1" fill="none" fill-rule="evenodd"><g id="Career-Index" transform="translate(-1002 -1735)" fill="#E9731F" fill-rule="nonzero"><g id="Group-7" transform="translate(144 1729)"><g id="world" transform="translate(858 6)"><path d="M11.45 50.248a26.267 26.267 0 0 1-1.846-1.665.918.918 0 0 0-1.292 0 .918.918 0 0 0 0 1.297 23.417 23.417 0 0 0 1.909 1.732.918.918 0 0 0 1.228-1.364zM1.842 23.032a.918.918 0 0 0-1.217.783 27.49 27.49 0 0 0-.429 2.54.918.918 0 0 0 .778 1.028h.116a.918.918 0 0 0 .912-.808c.098-.795.232-1.597.404-2.374a.918.918 0 0 0-.564-1.17zm5.044 22.35a27.096 27.096 0 0 1-1.328-2.007.918.918 0 0 0-1.259-.32l-.002.002a.918.918 0 0 0-.32 1.258l.002.002c.44.735.918 1.457 1.426 2.148a.918.918 0 0 0 1.48-1.083zm-3.201-5.789a26.3 26.3 0 0 1-.79-2.277.918.918 0 0 0-1.162-.618.918.918 0 0 0-.612 1.138c.244.82.526 1.64.844 2.448a.927.927 0 1 0 1.72-.691zm.548-22.855a.918.918 0 0 0-1.234.407c-.385.765-.74 1.554-1.052 2.356-.184.47.045 1 .514 1.187a.918.918 0 0 0 1.191-.515l.002-.005c.294-.747.612-1.487.986-2.197a.918.918 0 0 0-.407-1.233zm-2.2 16.468v-.002a28.796 28.796 0 0 1-.196-2.4.919.919 0 1 0-1.836.068c0 .857.098 1.72.208 2.57a.918.918 0 0 0 .887.79h.14a.918.918 0 0 0 .797-1.026zM26.387 2.582a.922.922 0 0 0-1.007-.83 27.87 27.87 0 0 0-2.552.374A.922.922 0 1 0 23 3.962l-.007-.024h.178c.79-.153 1.591-.27 2.387-.35a.922.922 0 0 0 .829-1.006zM8.22 11.184a.924.924 0 0 0-1.304.08 26.988 26.988 0 0 0-1.603 2.019.918.918 0 0 0 .74 1.456v.013a.918.918 0 0 0 .747-.38c.471-.649.973-1.285 1.5-1.885a.924.924 0 0 0-.08-1.303zm24.217-9.278a27.576 27.576 0 0 0-2.565-.27.92.92 0 1 0-.11 1.836c.808.062 1.61.147 2.4.27h.14a.92.92 0 1 0 .135-1.836zM13.433 6.81a.918.918 0 0 0-1.235-.229 29.684 29.684 0 0 0-2.057 1.555.92.92 0 1 0 1.175 1.414 24.752 24.752 0 0 1 1.922-1.457.918.918 0 0 0 .195-1.283z" id="Path"/><g id="Group" transform="translate(15.453 3.213)"><path d="M1.06 2.854h-.02.018zM4.296.704A.918.918 0 0 0 3.042.107C2.24.4 1.44.719.668 1.104a.918.918 0 0 0 .382 1.75.918.918 0 0 0 .383-.091 26.173 26.173 0 0 1 2.221-.93.918.918 0 0 0 .642-1.129z" id="Path"/></g><path d="M30.848 57.02a.92.92 0 0 0-.976-.86c-.801.06-1.61.08-2.41.055a.918.918 0 1 0-.05 1.836h.777c.612 0 1.224 0 1.8-.055a.92.92 0 0 0 .86-.977zm24.028-21.268a.919.919 0 0 0-1.117.664 24.956 24.956 0 0 1-.704 2.302.918.918 0 0 0 .557 1.156.918.918 0 0 0 1.174-.554v-.003c.288-.808.54-1.634.754-2.448a.919.919 0 0 0-.664-1.117zm1.172-10.511a29.277 29.277 0 0 0-.533-2.521.918.918 0 0 0-1.775.465c.202.771.368 1.567.502 2.356a.92.92 0 0 0 .894.753h.153c.5-.081.84-.552.759-1.053z" id="Path"/><path d="M59.95 14.705a.89.89 0 0 0-.175-.253l-1.622-1.69a.887.887 0 0 0-.888-.22l-2.925.888-3.427-3.635 7.693-4.284a.893.893 0 0 0 .263-1.438l-2.16-2.16a.894.894 0 0 0-.888-.209l-9.749 2.95-3.28-3.482A2.968 2.968 0 0 0 39.413.37h-.055a3.61 3.61 0 0 0-1.964 1.964 3.308 3.308 0 0 0-.196.723l-.373-.129a.92.92 0 0 0-.563 1.75c.47.153.942.325 1.413.502.142.222.308.427.496.612l3.458 3.28-.992 3.275C30.941 5.43 17.472 7.683 10.555 17.38c-6.917 9.697-4.663 23.165 5.034 30.082 9.697 6.917 23.165 4.663 30.082-5.033a21.567 21.567 0 0 0-.474-25.688l1.567-2.828 3.635 3.428-.875 2.894a.887.887 0 0 0 .214.906s1.793 1.775 1.836 1.836a.888.888 0 0 0 1.224-.343l2.393-4.388 4.32-2.356a.893.893 0 0 0 .438-1.185zm-45.696 1.21a19.652 19.652 0 0 1 13.91-5.753c.409 0 .817.012 1.225.036 3.47 3.201 2.448 6.12.122 8.752a42.959 42.959 0 0 1-4.406 4.064c-2.258 1.921-4.364 3.714-5.16 5.508-.942 2.13-.25 4.057 3.556 5.74 1.904.845 2.938 1.5 3.342 1.995a.099.099 0 0 0 .018.017 7.606 7.606 0 0 1-2.93.51c-4.616.195-7.902-2.754-10.454-5.037-1.836-1.634-3.36-2.993-4.945-3.005a19.652 19.652 0 0 1 5.722-12.828zm33.654 13.94h.006a19.731 19.731 0 0 1-13.592 18.746 6.42 6.42 0 0 1 .752-4.167 15.173 15.173 0 0 1 3.672-4.04c5.65-4.712 5.967-7.344 6.212-9.37.153-1.278.27-2.233 2.797-3.622.101.814.153 1.633.153 2.454zm-1.138-6.621c.273.77.498 1.558.673 2.356-3.85 1.959-4.021 3.354-4.254 5.257-.208 1.714-.477 3.954-5.581 8.213a16.739 16.739 0 0 0-4.1 4.547 8.116 8.116 0 0 0-.918 5.466C21.973 51.499 11.4 44.86 8.973 34.244a19.72 19.72 0 0 1-.484-3.697c.973 0 2.234 1.157 3.782 2.534 2.803 2.503 6.39 5.698 11.732 5.508a9.18 9.18 0 0 0 3.672-.698c.49-.216.862-.637 1.016-1.15a1.75 1.75 0 0 0-.44-1.598c-.576-.703-1.836-1.536-4.003-2.503-2.589-1.144-3.152-2.258-2.644-3.396.612-1.432 2.583-3.06 4.676-4.896a44.55 44.55 0 0 0 4.596-4.284c2.558-2.913 3.874-6.09 1.273-9.566 2.89.591 5.61 1.828 7.956 3.617l-1.408 4.645a.893.893 0 0 0 .215.906s2.282 2.264 2.356 2.307a.888.888 0 0 0 1.224-.342l1.78-3.22a19.677 19.677 0 0 1 2.498 4.823zm8.207-6.836l-.79.392a.881.881 0 0 0-.404.41l-.392.795-1.523 2.754-.447-.49.887-2.93a.887.887 0 0 0-.287-.943l-4.83-4.547a.887.887 0 0 0-1.278.036c-.061.068-4.407 7.895-4.407 7.895l-.948-.949L43.52 9.06a.887.887 0 0 0-.288-.949L39.39 4.495a1.273 1.273 0 0 1-.349-1.47c.195-.444.552-.798.998-.99h.03A1.273 1.273 0 0 1 41.5 2.4l3.672 3.88c.23.248.582.343.906.245L55.87 3.57l.949.949-7.773 4.272a.887.887 0 0 0-.342 1.224c.036.067 4.718 5.049 4.718 5.049a.887.887 0 0 0 .906.238l2.944-.887.459.459-2.754 1.524z" id="Shape"/><path d="M52.612 42.204a.918.918 0 0 0-1.265.339 24.322 24.322 0 0 1-1.26 2.056.92.92 0 0 0 1.505 1.059c.478-.71.93-1.45 1.347-2.197a.92.92 0 0 0-.327-1.257zm2.903-13.401a.918.918 0 0 0-.93.943v.104c0 .801-.037 1.61-.11 2.411a.918.918 0 0 0 .83.997h.088a.918.918 0 0 0 .924-.85c.08-.85.116-1.714.116-2.57v-.123a.918.918 0 0 0-.918-.912zM23.281 55.756a18.963 18.963 0 0 1-2.35-.539.918.918 0 1 0-.502 1.763 37.5 37.5 0 0 0 2.51.612h.17a.922.922 0 1 0 .172-1.836zm14.204-.279a.918.918 0 0 0-1.113-.566v.025a18.24 18.24 0 0 1-2.32.612.92.92 0 0 0 .404 1.793c.833-.19 1.671-.422 2.485-.686a.918.918 0 0 0 .544-1.178zm-20.501-1.723a44.174 44.174 0 0 1-2.136-1.144.919.919 0 1 0-.93 1.585c.74.435 1.505.838 2.282 1.224a.92.92 0 0 0 .784-1.665zm31.728-5.904a.918.918 0 0 0-1.281.042h.006c-.551.612-1.132 1.15-1.726 1.683a.919.919 0 0 0 1.224 1.37c.612-.569 1.26-1.175 1.836-1.799a.918.918 0 0 0-.059-1.297zm-5.065 4.578a.918.918 0 0 0-1.302-.29v-.024a37.9 37.9 0 0 1-2.087 1.224.918.918 0 0 0 .838 1.634 28.892 28.892 0 0 0 2.234-1.285.918.918 0 0 0 .317-1.259z" id="Path"/></g></g></g></g></svg>
